source/img/icon-dropdown.svg

<svg viewBox="0 0 21 11" fill="none" xmlns="http://www.w3.org/2000/svg">
<path d="M0.41098 0.481236C0.280705 0.596555 0.177346 0.73355 0.106823 0.884374C0.0363008 1.0352 0 1.19689 0 1.36018C0 1.52347 0.0363008 1.68516 0.106823 1.83599C0.177346 1.98681 0.280705 2.12381 0.41098 2.23913L9.71087 10.4923C9.8144 10.5843 9.93738 10.6574 10.0728 10.7072C10.2082 10.7571 10.3533 10.7827 10.4999 10.7827C10.6464 10.7827 10.7916 10.7571 10.9269 10.7072C11.0623 10.6574 11.1853 10.5843 11.2888 10.4923L20.5887 2.23913C21.1371 1.75248 21.1371 0.967883 20.5887 0.481236C20.0404 -0.0054121 19.4645 0.397726 18.9162 0.884374L14.0412 5.23128L10.4637 8.29358L1.46374 0.470589C1.46374 0.470589 0.948157 -0.0054121 0.41098 0.481236Z" fill="currentColor"/>
</svg>

<svg viewBox="0 0 21 11" fill="none" xmlns="http://www.w3.org/2000/svg"><path d="M.411.481C.281.597.177.734.107.884a1.121 1.121 0 000 .952c.07.15.174.288.304.403l9.3 8.253c.103.092.226.165.362.215a1.237 1.237 0 00.854 0c.135-.05.258-.123.362-.215l9.3-8.253c.548-.487.548-1.271 0-1.758-.549-.486-1.124-.083-1.673.403l-4.875 4.347-3.577 3.063-9-7.823S.948-.005.41.48z" fill="currentColor"/></svg>
